icons/Regex.svg

<?xml version="1.0" encoding="UTF-8" standalone="no"?>
<svg
   width="256px"
   height="256px"
   viewBox="0 0 256 256"
   version="1.1"
   id="svg21"
   sodipodi:docname="regex_icon (1).svg"
   inkscape:version="1.2-alpha1 (b6a15bbbed, 2022-02-23)"
   xmlns:inkscape="http://www.inkscape.org/namespaces/inkscape"
   xmlns:sodipodi="http://sodipodi.sourceforge.net/DTD/sodipodi-0.dtd"
   xmlns="http://www.w3.org/2000/svg"
   xmlns:svg="http://www.w3.org/2000/svg">
  <defs
     id="defs25" />
  <sodipodi:namedview
     id="namedview23"
     pagecolor="#505050"
     bordercolor="#eeeeee"
     borderopacity="1"
     inkscape:pageshadow="0"
     inkscape:pageopacity="0"
     inkscape:pagecheckerboard="0"
     inkscape:deskcolor="#505050"
     showgrid="false"
     inkscape:zoom="3.1484375"
     inkscape:cx="128"
     inkscape:cy="128"
     inkscape:window-width="1920"
     inkscape:window-height="1009"
     inkscape:window-x="-8"
     inkscape:window-y="-8"
     inkscape:window-maximized="1"
     inkscape:current-layer="surface1" />
  <g
     id="surface1">
    <path
       style=" stroke:none;fill-rule:evenodd;fill:rgb(0%,0%,0%);fill-opacity:1;"
       d="m 89.949219,149.74609 c -13.027344,4.19532 -19.191407,18.57422 -13.078125,30.50391 5.453125,10.64062 19.851562,14.5 30.042966,8.05078 1.01172,-0.63672 2.8125,-2.21875 4.00391,-3.51562 7.78125,-8.45704 7.3125,-22.28907 -1.02734,-30.08985 -3.67579,-3.4375 -8.16797,-5.28515 -13.39063,-5.50781 -2.839844,-0.12109 -5.011719,0.0625 -6.550781,0.55859"
       id="path3255" />
    <path
       style=" stroke:none;fill-rule:evenodd;fill:rgb(0%,0%,0%);fill-opacity:1;"
       d="M 136.30469,64.789062 C 136.13672,65.226562 136,71.515625 136,78.769531 v 13.1875 l -2.875,-1.675781 c -10.1875,-5.9375 -20.58594,-11.378906 -21.875,-11.449219 -1.39062,-0.07422 -1.80859,0.378907 -5.65234,6.109375 -2.61719,3.902344 -4.09375,6.578125 -4,7.25 0.11718,0.820313 2.16797,2.085938 9.15234,5.644532 4.94922,2.523442 10.6875,5.300782 12.75,6.175782 2.0625,0.875 3.92188,1.75 4.13281,1.94531 0.20703,0.19531 -1.48047,1.10156 -3.75,2.01172 -7.14843,2.85938 -22.11718,10.69141 -22.29687,11.66406 -0.0898,0.48438 1.68359,3.80469 3.9375,7.375 4.66406,7.38281 4.79687,7.45703 8.98437,4.98828 1.40235,-0.82812 3.94141,-2.26562 5.64453,-3.19531 1.70313,-0.92969 5.91016,-3.26953 9.34766,-5.20312 l 6.25,-3.51172 0.13281,13.53906 c 0.0898,8.97266 0.32031,13.76562 0.6875,14.20703 0.75,0.90625 17.42969,0.96875 18.32813,0.0664 0.4375,-0.4375 0.60156,-4.30469 0.60156,-14.28125 v -13.6836 l 1.375,0.94922 c 1.18359,0.81641 17.07031,9.59766 22.07422,12.20313 1.0039,0.52343 1.98828,0.71875 2.41015,0.48437 0.71094,-0.39844 6.4375,-8.95312 7.96485,-11.89843 0.44922,-0.8711 0.67969,-1.94532 0.50781,-2.38672 -0.30469,-0.79688 -18.96484,-10.3086 -24.00391,-12.23828 L 163.25,106.05859 165,105.41016 c 2.88281,-1.07032 23.67969,-11.44141 24.60937,-12.269535 1.03907,-0.925781 1.06641,-0.859375 -3.78906,-8.53125 -2.34765,-3.710937 -3.94922,-5.738281 -4.67578,-5.925781 -0.79687,-0.203125 -4.15234,1.359375 -12,5.585937 -5.99219,3.226563 -11.51172,6.300781 -12.26953,6.832031 L 155.5,92.066406 V 78.632812 c 0,-9.78125 -0.16406,-13.597656 -0.60156,-14.03125 C 154.47656,64.179688 151.66797,64 145.45312,64 c -7.60546,0 -8.88671,0.109375 -9.14843,0.789062"
       id="path3253" />
    <path
       style=" stroke:none;fill-rule:evenodd;fill:rgb(0%,0%,0%);fill-opacity:1;"
       d="m 180.375,53.324219 c -0.48047,0.136719 -0.875,0.375 -0.875,0.527343 0,0.152344 1.42578,1.789063 3.17187,3.636719 7.92579,8.402344 15.99219,21.0625 19.82422,31.117188 7.48828,19.636721 8.51563,49.425781 2.45703,71.437501 -3.93359,14.29687 -12.38671,28.82812 -22.64062,38.91797 -1.79688,1.76562 -3.14844,3.39843 -3.00781,3.625 0.14062,0.22656 2.09765,0.41406 4.35156,0.41015 4.98047,0 5.46875,-0.26172 11.82031,-6.30468 15.61328,-14.85938 23.67188,-29.59375 27.14063,-49.64063 0.91406,-5.28125 1.09375,-8.28516 1.11328,-18.55078 0.0195,-13.19141 -0.55078,-18.47656 -3.02344,-28 -3.92969,-15.125 -10.29687,-25.730469 -23.35937,-38.894531 -7.28907,-7.347657 -8.20704,-7.949219 -12.59766,-8.269531 -1.92578,-0.144532 -3.89453,-0.144532 -4.375,-0.01172"
       id="path3251" />
    <path
       style=" stroke:none;fill-rule:evenodd;fill:rgb(0%,0%,0%);fill-opacity:1;"
       d="m 68.667969,53.460938 c -2.5625,0.425781 -5.71875,3.027343 -12.660157,10.457031 C 44.648438,76.0625 38.667969,86.519531 35.050781,100.55859 c -2.351562,9.1211 -3.1875,16.35547 -3.191406,27.69141 -0.01172,23.71094 5.539063,41.51562 17.683594,56.75 3.480469,4.36328 12.128906,13.25391 15.628906,16.05859 2.402344,1.92969 2.445313,1.94141 6.875,1.94141 2.449219,0 4.453125,-0.14453 4.453125,-0.32031 0,-0.17578 -1.636719,-2.03125 -3.632812,-4.125 -5.976563,-6.25782 -11.402344,-13.84766 -15.855469,-22.19141 -5.164063,-9.67187 -8.113281,-20.24609 -9.554688,-34.25391 -0.867187,-8.44921 -0.335937,-27.76562 0.980469,-35.41796 3.164062,-18.421879 11.601562,-35.300785 24.417969,-48.832035 2.027343,-2.140625 3.570312,-4.074219 3.433593,-4.296875 -0.3125,-0.503906 -4.824218,-0.566406 -7.621093,-0.101562"
       id="path18" />
  </g>
</svg>

<?xml version="1.0" encoding="UTF-8"?>
<svg xmlns="http://www.w3.org/2000/svg" xmlns:xlink="http://www.w3.org/1999/xlink" width="256px" height="256px" viewBox="0 0 256 256" version="1.1">
  <g id="surface1">
    <path style="stroke:none; fill-rule: evenodd; fill: rgb(0%,0%,0%); fill-opacity:1;" d="M 68.667969 53.460938 C 66.105469 53.886719 62.949219 56.488281 56.007812 63.917969 C 44.648438 76.0625 38.667969 86.519531 35.050781 100.558594 C 32.699219 109.679688 31.863281 116.914062 31.859375 128.25 C 31.847656 151.960938 37.398438 169.765625 49.542969 185 C 53.023438 189.363281 61.671875 198.253906 65.171875 201.058594 C 67.574219 202.988281 67.617188 203 72.046875 203 C 74.496094 203 76.5 202.855469 76.5 202.679688 C 76.5 202.503906 74.863281 200.648438 72.867188 198.554688 C 66.890625 192.296875 61.464844 184.707031 57.011719 176.363281 C 51.847656 166.691406 48.898438 156.117188 47.457031 142.109375 C 46.589844 133.660156 47.121094 114.34375 48.4375 106.691406 C 51.601562 88.269531 60.039062 71.390625 72.855469 57.859375 C 74.882812 55.71875 76.425781 53.785156 76.289062 53.5625 C 75.976562 53.058594 71.464844 52.996094 68.667969 53.460938 M 180.375 53.324219 C 179.894531 53.460938 179.5 53.699219 179.5 53.851562 C 179.5 54.003906 180.925781 55.640625 182.671875 57.488281 C 190.597656 65.890625 198.664062 78.550781 202.496094 88.605469 C 209.984375 108.242188 211.011719 138.03125 204.953125 160.042969 C 201.019531 174.339844 192.566406 188.871094 182.3125 198.960938 C 180.515625 200.726562 179.164062 202.359375 179.304688 202.585938 C 179.445312 202.8125 181.402344 203 183.65625 202.996094 C 188.636719 202.996094 189.125 202.734375 195.476562 196.691406 C 211.089844 181.832031 219.148438 167.097656 222.617188 147.050781 C 223.53125 141.769531 223.710938 138.765625 223.730469 128.5 C 223.75 115.308594 223.179688 110.023438 220.707031 100.5 C 216.777344 85.375 210.410156 74.769531 197.347656 61.605469 C 190.058594 54.257812 189.140625 53.65625 184.75 53.335938 C 182.824219 53.191406 180.855469 53.191406 180.375 53.324219 M 136.304688 64.789062 C 136.136719 65.226562 136 71.515625 136 78.769531 L 136 91.957031 L 133.125 90.28125 C 122.9375 84.34375 112.539062 78.902344 111.25 78.832031 C 109.859375 78.757812 109.441406 79.210938 105.597656 84.941406 C 102.980469 88.84375 101.503906 91.519531 101.597656 92.191406 C 101.714844 93.011719 103.765625 94.277344 110.75 97.835938 C 115.699219 100.359375 121.4375 103.136719 123.5 104.011719 C 125.5625 104.886719 127.421875 105.761719 127.632812 105.957031 C 127.839844 106.152344 126.152344 107.058594 123.882812 107.96875 C 116.734375 110.828125 101.765625 118.660156 101.585938 119.632812 C 101.496094 120.117188 103.269531 123.4375 105.523438 127.007812 C 110.1875 134.390625 110.320312 134.464844 114.507812 131.996094 C 115.910156 131.167969 118.449219 129.730469 120.152344 128.800781 C 121.855469 127.871094 126.0625 125.53125 129.5 123.597656 L 135.75 120.085938 L 135.882812 133.625 C 135.972656 142.597656 136.203125 147.390625 136.570312 147.832031 C 137.320312 148.738281 154 148.800781 154.898438 147.898438 C 155.335938 147.460938 155.5 143.59375 155.5 133.617188 L 155.5 119.933594 L 156.875 120.882812 C 158.058594 121.699219 173.945312 130.480469 178.949219 133.085938 C 179.953125 133.609375 180.9375 133.804688 181.359375 133.570312 C 182.070312 133.171875 187.796875 124.617188 189.324219 121.671875 C 189.773438 120.800781 190.003906 119.726562 189.832031 119.285156 C 189.527344 118.488281 170.867188 108.976562 165.828125 107.046875 L 163.25 106.058594 L 165 105.410156 C 167.882812 104.339844 188.679688 93.96875 189.609375 93.140625 C 190.648438 92.214844 190.675781 92.28125 185.820312 84.609375 C 183.472656 80.898438 181.871094 78.871094 181.144531 78.683594 C 180.347656 78.480469 176.992188 80.042969 169.144531 84.269531 C 163.152344 87.496094 157.632812 90.570312 156.875 91.101562 L 155.5 92.066406 L 155.5 78.632812 C 155.5 68.851562 155.335938 65.035156 154.898438 64.601562 C 154.476562 64.179688 151.667969 64 145.453125 64 C 137.847656 64 136.566406 64.109375 136.304688 64.789062 M 89.949219 149.746094 C 76.921875 153.941406 70.757812 168.320312 76.871094 180.25 C 82.324219 190.890625 96.722656 194.75 106.914062 188.300781 C 107.925781 187.664062 109.726562 186.082031 110.917969 184.785156 C 118.699219 176.328125 118.230469 162.496094 109.890625 154.695312 C 106.214844 151.257812 101.722656 149.410156 96.5 149.1875 C 93.660156 149.066406 91.488281 149.25 89.949219 149.746094 "/>
  </g>
</svg>
